Newaita-dark/.DP/24/whatsapp-tray.svg

<svg xmlns="http://www.w3.org/2000/svg" xmlns:xlink="http://www.w3.org/1999/xlink" width="24px" height="24px" viewBox="0 0 24 24" version="1.1">
<g id="surface1">
<path style=" stroke:none;fill-rule:nonzero;fill:rgb(93.333334%,93.333334%,93.333334%);fill-opacity:1;" d="M 11.90625 3.164062 C 6.410156 3.164062 1.984375 7.148438 1.984375 12.09375 C 1.984375 14.605469 3.125 16.867188 4.96875 18.488281 L 4.96875 20.03125 C 4.96875 20.859375 5.933594 21.320312 6.578125 20.792969 L 7.449219 20.082031 C 8.789062 20.6875 10.304688 21.023438 11.90625 21.023438 C 17.40625 21.023438 21.828125 17.042969 21.828125 12.09375 C 21.828125 7.148438 17.40625 3.164062 11.90625 3.164062 Z M 10.128906 6.804688 C 10.3125 6.808594 10.492188 6.90625 10.59375 7.078125 L 11.960938 9.453125 C 12.113281 9.714844 12.023438 10.046875 11.761719 10.203125 L 11.289062 10.476562 C 11.023438 10.625 10.6875 10.539062 10.539062 10.273438 L 9.167969 7.902344 C 9.015625 7.640625 9.105469 7.304688 9.367188 7.152344 L 9.84375 6.878906 C 9.933594 6.828125 10.03125 6.804688 10.128906 6.804688 Z M 8.929688 8.039062 L 10.300781 10.414062 C 9.585938 10.820312 9.796875 12.28125 10.347656 13.234375 C 10.894531 14.179688 12.054688 15.09375 12.765625 14.683594 L 14.136719 17.054688 C 12 18.289062 9.945312 14.730469 9.398438 13.78125 C 8.851562 12.832031 6.796875 9.273438 8.929688 8.039062 Z M 13.964844 13.449219 C 14.148438 13.453125 14.328125 13.550781 14.429688 13.726562 L 15.796875 16.097656 C 15.949219 16.359375 15.859375 16.695312 15.597656 16.84375 L 15.125 17.117188 C 14.859375 17.273438 14.523438 17.179688 14.375 16.921875 L 13.003906 14.546875 C 12.851562 14.28125 12.941406 13.949219 13.203125 13.796875 L 13.679688 13.523438 C 13.769531 13.46875 13.867188 13.445312 13.964844 13.449219 Z M 13.964844 13.449219 "/>
</g>
</svg>

<svg xmlns="http://www.w3.org/2000/svg" width="24" height="24"><path d="M11.906 3.164c-5.496 0-9.922 3.984-9.922 8.93 0 2.511 1.141 4.773 2.98 6.394v1.54a.988.988 0 0 0 1.614.765l.871-.711c1.34.605 2.852.945 4.457.945 5.5 0 9.926-3.984 9.926-8.933 0-4.946-4.426-8.93-9.926-8.93zm-1.777 3.64a.544.544 0 0 1 .46.274l1.372 2.375a.549.549 0 0 1-.2.75l-.476.274a.542.542 0 0 1-.746-.204l-1.371-2.37a.548.548 0 0 1 .2-.75l.476-.274a.576.576 0 0 1 .285-.074zm-1.2 1.235l1.372 2.371c-.711.414-.5 1.875.047 2.824.547.95 1.707 1.86 2.418 1.45l1.37 2.37C12 18.29 9.947 14.73 9.399 13.782c-.546-.949-2.605-4.508-.468-5.742zm5.036 5.41a.555.555 0 0 1 .465.274l1.367 2.375a.549.549 0 0 1-.2.75l-.476.273a.542.542 0 0 1-.746-.203l-1.371-2.371a.549.549 0 0 1 .2-.75l.476-.274a.576.576 0 0 1 .285-.074zm0 0" fill="#bdbdbd"/></svg>
